X:9
T:Gordie Sampson's Strathspey
R:strathspey
C:Andrea Beaton
D:Andrea Beaton, Cuts
Z:Paul Stewart Cranford (P.S.C.), <http://www.cranfordpub.com>
L:1/8
Q:288
M:C
K:Eaeo
f|e>dB>A B<EE>G|F<DA<F d>BA<f|e>dB>A B<EE>G|F<DA<F G>EE:|
||B|e>fg>a b<ee>f|d/d/d d>f a>ba<f|e>fg>a b<ee>f|d>BA<F G>EE>B|
e>fg>a b<ee>f|d/d/d d>f a>ba<f|g>ef<d eBA>F B<EE|]
